X:1
T:Részeg vagyok, rózsám
T: 
C:Hungarian song
Z:Public Domain
L:1/8
Q:1/4=120
M:4/4
K:C
V:1 treble nm="MusicXML Part"
%%MIDI program 0
V:1
"C" GFEF G2 G2 |"G" G2 A2 G2 z2 |"C" cBAG AGFE |"G" F2 E2 D2 z2 |"G" d2 d2 d2 d2 | dcBA G2 z2 | %6
w: Ré- szeg va- gyok ró- zsám,|mint a csap,|Nem a- lud- tam há- rom éj- jel,|há- rom nap.|Ha- za- men- nék,|sej, de nem tu- dok,|
"C" GGAB c2 E2 |"G" GFED"C" C2 z2 |] %8
w: így hát ked- ves ró- zsám,|ná- lad ma- ra- dok.|

